X:4130
T:McIllhatton's Retreat
O:england
M:4/4
L:1/8
C:Maire O'Keeffe
R:Reel
D:Many's the Wild Night
K:D
ABc|df~f2 gece|dAA^G A=GFA|df~f2 ba^ga|=gfed cABc|
df~f2 gece|dAA^G A=GFA|GEED EFGA|BABc d:|
BAF|D2FA dAFA|GEED EFGE|D2FA dAFA|GECE DB,CE|
D2FA dAFA|GEED EFGE|FDFA BGBd|cABc d:|


